icons/Hydrogenicons.svg

<svg width="16" height="16" viewBox="0 0 16 16" fill="currentColor" xmlns="http://www.w3.org/2000/svg">
<g clip-path="url(#clip0_4_478)">
<path d="M11.039 15.8C8.30391 15.8 6.07535 13.5714 6.07535 10.8364C6.07535 8.1013 8.30391 5.82208 11.039 5.82208C12.4065 5.82208 13.7234 6.37922 14.6351 7.39221C14.6857 7.49351 14.6857 7.59481 14.6351 7.64546C14.5844 7.69611 14.4325 7.69611 14.3818 7.64546C13.5208 6.73377 12.3052 6.22728 11.039 6.22728C8.50651 6.22728 6.42989 8.3039 6.42989 10.8364C6.42989 13.3688 8.50651 15.4454 11.039 15.4454C13.5714 15.4454 15.6481 13.3688 15.6481 10.8364C15.6481 10.2792 15.5468 9.72208 15.3442 9.21558C15.2935 9.11428 15.3442 9.01299 15.4455 8.96234C15.5468 8.91169 15.6481 8.96234 15.6987 9.06364C15.9013 9.62078 16.0026 10.2286 16.0026 10.8364C16.0026 13.5208 13.774 15.8 11.039 15.8V15.8Z" fill="#3D3D3D"/>
<path d="M9.2156 7.94934V9.57012H11.0896V7.94934H11.5961V11.7987H11.0896V9.97531H9.2156V11.7987H8.70911V7.94934H9.2156ZM11.9 13.6221V13.4195L12.1533 13.2169C12.7104 12.7104 12.9636 12.4065 12.9636 12.1026C12.9636 11.9 12.8623 11.6974 12.5585 11.6974C12.3559 11.6974 12.2039 11.7987 12.1026 11.9L12.0013 11.6974C12.1533 11.5961 12.3559 11.4948 12.6091 11.4948C13.0649 11.4948 13.2675 11.7987 13.2675 12.1026C13.2675 12.5078 13.0143 12.8623 12.5078 13.2675C12.4572 13.3182 12.3052 13.3688 12.3052 13.3688H13.2675V13.6221H11.9ZM4.40392 4.04935H2.17535V3.64416H4.40392C4.91041 3.64416 5.31561 3.23896 5.31561 2.73247C5.31561 2.22598 4.91041 1.82078 4.40392 1.82078H2.17535V1.41559H4.40392C5.11301 1.41559 5.7208 2.02338 5.7208 2.73247C5.7208 3.44156 5.11301 4.04935 4.40392 4.04935V4.04935Z" fill="#3D3D3D"/>
<path d="M1.87145 4.45454H1.56756C1.21301 4.45454 0.909119 4.20129 0.909119 3.84674V1.66883C0.909119 1.31428 1.21301 1.06104 1.56756 1.06104H1.82081C2.1247 1.06104 2.4286 1.26363 2.47925 1.56753V1.82077H2.07405V1.66883C2.0234 1.51688 1.9221 1.41558 1.77016 1.41558H1.56756C1.41561 1.41558 1.26366 1.51688 1.26366 1.66883V3.84674C1.26366 3.99869 1.41561 4.09999 1.56756 4.09999H1.82081C1.97275 4.09999 2.07405 3.99869 2.1247 3.89739L2.17535 3.6948L2.52989 3.74545L2.47925 3.94804C2.47925 4.25194 2.17535 4.45454 1.87145 4.45454Z" fill="#3D3D3D"/>
<path d="M1.06107 2.32727H0.200034C0.0987351 2.32727 -0.00256348 2.22597 -0.00256348 2.12467C-0.00256348 2.02337 0.0987351 1.92207 0.200034 1.92207H1.06107C1.16237 1.92207 1.26367 2.02337 1.26367 2.12467C1.26367 2.22597 1.16237 2.32727 1.06107 2.32727V2.32727ZM1.06107 3.54285H0.200034C0.0987351 3.54285 -0.00256348 3.44155 -0.00256348 3.34025C-0.00256348 3.23895 0.0987351 3.13765 0.200034 3.13765H1.06107C1.16237 3.13765 1.26367 3.23895 1.26367 3.34025C1.26367 3.44155 1.16237 3.54285 1.06107 3.54285V3.54285ZM11.1403 6.02466C11.039 6.02466 10.9377 5.92336 10.9377 5.82206V1.11168C10.9377 0.807788 10.6844 0.605191 10.4312 0.605191C10.1779 0.605191 9.92469 0.858437 9.92469 1.11168V2.02337C9.92469 2.12467 9.82339 2.22597 9.72209 2.22597C9.6208 2.22597 9.5195 2.12467 9.5195 2.02337V1.11168C9.5195 0.605191 9.92469 0.199997 10.4312 0.199997C10.9377 0.199997 11.3429 0.605191 11.3429 1.11168V5.82206C11.3429 5.92336 11.2416 6.02466 11.1403 6.02466V6.02466Z" fill="#3D3D3D"/>
<path d="M9.013 4.85974C8.50651 4.85974 8.10132 4.45455 8.10132 3.94805V3.44156C8.10132 3.34026 8.20262 3.23896 8.30392 3.23896C8.40521 3.23896 8.50651 3.34026 8.50651 3.44156V3.94805C8.50651 4.25195 8.75976 4.45455 9.013 4.45455C9.26625 4.45455 9.5195 4.2013 9.5195 3.94805V2.02338C9.5195 1.92208 9.6208 1.82079 9.72209 1.82079C9.82339 1.82079 9.92469 1.92208 9.92469 2.02338V3.94805C9.92469 4.45455 9.5195 4.85974 9.013 4.85974V4.85974Z" fill="#3D3D3D"/>
<path d="M8.3039 3.6948C8.2026 3.6948 8.10131 3.59351 8.10131 3.49221C8.10131 3.18831 7.84806 2.98571 7.59481 2.98571H5.67014C5.56884 2.98571 5.46754 2.88442 5.46754 2.78312C5.46754 2.68182 5.56884 2.58052 5.67014 2.58052H7.59481C8.10131 2.58052 8.5065 2.98571 8.5065 3.49221C8.5065 3.59351 8.4052 3.6948 8.3039 3.6948V3.6948Z" fill="#3D3D3D"/>
</g>
<defs>
<clipPath id="clip0_4_478">
<rect width="16" height="16" fill="white"/>
</clipPath>
</defs>
</svg>

<svg xmlns="http://www.w3.org/2000/svg" width="16" height="16" fill="currentColor" class="si si-Hydrogenicons" viewBox="0 0 16 16">
  <g clip-path="url(#a)">
    <path d="M11.039 15.8a4.97 4.97 0 0 1-4.964-4.964c0-2.735 2.229-5.014 4.964-5.014 1.367 0 2.684.557 3.596 1.57.05.102.05.203 0 .253-.05.051-.203.051-.253 0a4.6 4.6 0 0 0-3.343-1.418c-2.532 0-4.61 2.077-4.61 4.61 0 2.532 2.078 4.608 4.61 4.608s4.61-2.076 4.61-4.609c0-.557-.102-1.114-.305-1.62-.05-.102 0-.203.101-.254s.203 0 .254.102a5.2 5.2 0 0 1 .304 1.772c0 2.685-2.229 4.964-4.964 4.964"/>
    <path d="M9.216 7.95v1.62h1.874V7.95h.506v3.849h-.506V9.975H9.216V11.8h-.507V7.95zm2.684 5.672v-.203l.253-.202c.557-.507.81-.81.81-1.114 0-.203-.1-.406-.404-.406a.64.64 0 0 0-.456.203L12 11.697c.152-.1.355-.202.608-.202.456 0 .659.304.659.608 0 .405-.254.76-.76 1.165-.05.05-.203.1-.203.1h.963v.254zM4.404 4.05H2.175v-.405h2.229a.91.91 0 0 0 .912-.912.91.91 0 0 0-.912-.911H2.175v-.405h2.229a1.34 1.34 0 0 1 1.317 1.316A1.34 1.34 0 0 1 4.404 4.05"/>
    <path d="M1.871 4.455h-.303c-.355 0-.659-.254-.659-.608V1.669c0-.355.304-.608.659-.608h.253c.304 0 .608.203.658.507v.253h-.405v-.152c-.05-.152-.152-.253-.304-.253h-.202c-.152 0-.304.1-.304.253v2.178c0 .152.152.253.304.253h.253a.34.34 0 0 0 .304-.203l.05-.202.355.05-.05.203c0 .304-.305.507-.609.507"/>
    <path d="M1.061 2.327H.2a.22.22 0 0 1-.203-.202c0-.102.102-.203.203-.203h.861c.101 0 .203.101.203.203a.22.22 0 0 1-.203.202m0 1.216H.2a.22.22 0 0 1-.203-.203c0-.101.102-.202.203-.202h.861c.101 0 .203.101.203.202a.22.22 0 0 1-.203.203m10.08 2.482a.22.22 0 0 1-.203-.203v-4.71a.51.51 0 0 0-.507-.507c-.253 0-.506.253-.506.507v.911a.22.22 0 0 1-.203.203.22.22 0 0 1-.202-.203v-.911c0-.507.405-.912.911-.912.507 0 .912.405.912.912v4.71a.22.22 0 0 1-.203.203"/>
    <path d="M9.013 4.86a.91.91 0 0 1-.912-.912v-.506c0-.102.102-.203.203-.203s.203.101.203.203v.506c0 .304.253.507.506.507s.507-.254.507-.507V2.023c0-.1.1-.202.202-.202.101 0 .203.101.203.202v1.925a.91.91 0 0 1-.912.912"/>
    <path d="M8.304 3.695a.22.22 0 0 1-.203-.203.51.51 0 0 0-.506-.506H5.67a.22.22 0 0 1-.202-.203c0-.101.1-.202.202-.202h1.925c.506 0 .912.405.912.911a.22.22 0 0 1-.203.203"/>
  </g>
  <defs>
    <clipPath id="a">
      <path d="M0 0h16v16H0z"/>
    </clipPath>
  </defs>
</svg>
